X:1
T:The Church in the Village
T:Haldor Lillenas
T:The Church in the Village
T:Public Domain
T:Public Domain
T:Public Domain
C:Haldor Lillenas
Z:Public Domain
%%score ( 1 2 ) ( 3 4 )
L:1/8
M:4/4
K:Eb
V:1 treble 
V:2 treble 
V:3 bass 
V:4 bass 
V:1
 [EG]>[FA] | [GB]2 [GB]>[GB] [GB]2 [^F=A]>[GB] | [Ac] [GB]4 z E>[EF] | %3
w: 1.~There’s a|dear lit- tle church in the|vil- lage, Near the|
w: 2.~There it|stands, when the bright sun is|shin- ing, Where the|
w: 3.~Then the|light, shin- ing thro’ stain- èd|win- dows Sift- ing|
w: 4.~Thus the|dark- ness and blind- ness that|bound me Were re-|
 [EG]2 [EG]>[EG] [EB]2 [EA]>[EG] | [DF]6 [EG]>[FA] | [GB]2 [GB]>[GB] [GB]2 [^F=A]>[GB] | %6
w: where I first saw the day;|Where in child-|hood I learned of the Sav-|
w: spread- ing trees cast their shade,|Then at eve,|when the sun has de- scend-|
w: shim- mers in- to the night,|Giv- ing all|that it touch- es new beau-|
w: in that dear, sac- red place,|And no mat-|ter how far I may wan-|
 [Ac] [GB]4 z [EG]>[EG] | [DF]2 [DF]>[DF] [E=A]2 [DB]>[Ec] | (D4 A2) |:"^Refrain" [GB]2 | %10
w: ior, As the Life,|and the Truth, and the Way.|||
w: ed, See it stand|in the twi- light ar- rayed.|~ *|~|
w: ty, And dis- pell-|ing the dark- ness with light.|||
w: der, ’Twill be dear|till the end of my race.|||
 [Ge]2 [Ge]>[Ge] [Ge]2 [Gd]>[Gc] | [Ad]FFE DB, [DA]2 | [Dc]2 [Dc]>[Dc] [Dc]2 [Dd]>[Dc] | %13
w: |||
w: ~ ~ ~ ~ love- ly|lit- tle vil- lage ~ ~ ~|~ ~ ~ ~ sweet- ly|
w: |||
w: |||
 E2 D>D E2 [EB]2 | [=Ec]2 [EG]>[EG] [Ec]2 [EB]>[EB] | [FA] [Fc]4 z [Fc]2 | %16
w: |||
w: chime; O come from the|and the val- leys, And list|to the Gos-|
w: |||
w: |||
 [Fc]2 [Fc]>[Fc] [Fc]2 [Fd]>[Fe] | (F2 F2 A2) :| [GB]2 | [Ge]2 [Ge]>[Ge] [Ge]2 [GB]>[GB] | %20
w: ||||
w: pel sub- lime; O come to|the * *|in|the vil- lage, Seek God, while|
w: ||||
w: ||||
 [Ad] [Ac]4 z [^Fc]2 | [GB]2 [Ge]>[Ge] [Ae]2 [Ad]2 | (G2 A2 [Ge]2) |] %23
w: |||
w: still there is|time. * * * *||
w: |||
w: |||
V:2
 x2 | x8 | x6 E3/2 x/ | x8 | x8 | x8 | x8 | x8 | B6 |: x2 | x8 | x A4 x3 | x8 | B6 x2 | x8 | x8 | %16
w: ||spot||||||||||||||
w: ||broad,||||||~|||~||hills|||
w: ||out,||||||||||||||
w: ||moved||||||||||||||
 x8 | d6 :| x2 | x8 | x8 | x8 | e4- x2 |] %23
w: |||||||
w: |church||||||
w: |||||||
w: |||||||
V:3
 [E,B,]>[E,B,] | [E,E]2 [E,E]>[E,E] [E,E]2 [E,E]>[E,E] | [E,E] [E,E]4 z [E,G,]>[E,A,] | %3
w: ~ ~|~ ~ ~ ~ ~ ~|~ ~ ~ ~|
 [E,B,]2 [E,B,]>[E,B,] [E,G,]2 [E,C]>[E,B,] | [B,,B,]6 [E,B,]>[E,B,] | %5
w: ~ ~ ~ ~ ~ ~|~ ~ ~|
 [E,E]2 [E,E]>[E,E] [E,E]2 [E,E]>[E,E] | [E,E] [E,E]4 z [E,B,]>[E,B,] | %7
w: ~ ~ ~ ~ ~ ~|~ ~ ~ ~|
 [F,B,]2 [F,B,]>[F,B,] [F,C]2 [F,B,]>[F,=A,] | [B,,B,]6 |: [E,B,]2 | %10
w: ~ ~ ~ ~ ~ ~|~|O|
 [E,B,]2 [E,B,]>[E,B,] [E,B,]2 [E,B,]>[E,B,] | [F,B,] [F,B,]4 z [F,B,]2 | %12
w: come to the church in the|vil- lage, O|
 [B,,A,]2 [B,,A,]>[B,,A,] [B,,F,]2 [B,,F,]>[B,,A,] | ([E,G,]2 [F,A,]>[F,A,] [E,G,]2) [D,G,]2 | %14
w: come while the bells sweet- ly|chime, * * * ~|
 [C,G,]2 [C,C]>[C,C] [C,G,]2 [C,C]>[C,C] | [F,C]A,CF CA, [F,A,]2 | %16
w: ~ ~ ~ ~ ~ ~|~ and the val- leys, ~ ~|
 [F,=A,]2 [F,A,]>[F,A,] [F,A,]2 [F,B,]>[F,A,] | [B,,B,]2 [B,,B,]2 [B,,B,]2 :| [E,B,]2 | %19
w: ~ ~ ~ ~ ~ ~|~ ~ ~|~|
 [E,B,]2 [E,B,]>[E,B,] [E,B,]2 [E,E]>[E,E] | [A,E][A,E][A,E][A,E] [A,E][A,E] [=A,E]2 | %21
w: ~ ~ ~ ~ ~ love-|ly lit- tle vil- lage * *|
 [B,E]2 B,>B, [F,C]2 [B,,B,]2 | B,2 C2 [E,B,]2 |] %23
w: ||
V:4
 x2 | x8 | x8 | x8 | x8 | x8 | x8 | x8 | x6 |: x2 | x8 | x8 | x8 | x8 | x8 | x F,4 x3 | x8 | x6 :| %18
w: |||||||||||||||~|||
 x2 | x8 | x8 | x2 B,>B, x4 | E,4- x2 |] %23
w: |||||

